X: 1
T: String Quartet in G Major opus 33 no 5 mvt 2
C: Franz Joseph Haydn
%%abc-version 2.0
%%abcx-abcm2ps-target-version 5.9.1 (29 Sep 2008)
%%abc-creator hum2abc beta
%%abcx-conversion-date 2021/02/14 14:38:25
%%abc-copyright Copyright (c) 1994, 2000 Center for Computer Assisted Research in the Humanities
%%abc-edited-by Frances Bennion
%%abcx-initial-encoding-date 1997/04/15
%%gracespace 0 6 6
%%humdrum-veritas 1178082543
%%humdrum-veritas-data 3877749847
%%linebreak <none>
%%barnumbers 0
L: 1/16
M: 4/4
N: Derived from op33n5-02.krn
Q: "Largo e cantabile"
%%staves [1 2 3 4]
V: 1
V: 2
V: 3 clef=alto
V: 4 clef=bass
K: Bb
[V:1]z12 d4 [I:setbarnb1]|
[V:2]z12 z4 |
[V:3]z12 z4 |
[V:4]z12 z4 |
[V:1]g4 >>d4 b7 a/g/ |
[V:2]G,B,DB, GDB,D G,B,DB, GDB,D |
[V:3]z2G2 D2B2 z2G2 D2B2 |
[V:4]G,,4 z4 G,,4 z4 |
[V:1]^f2z2 a4 <z4 d4 |
[V:2]A,CDC ^FDCD A,CDC FDCD |
[V:3]z2^F2 D2A2 z2F2 D2A2 |
[V:4]D,4 z4 D,4 z4 |
[V:1]a4 >>d4 c'7 b/a/ |
[V:2]A,CDC ^FDCD A,CDC FDCD |
[V:3]z2^F2 D2c2 z2F2 D2c2 |
[V:4]D,4 z4 D,4 z4 |
[V:1]g2z2 b4 <z4 d4 |
[V:2]G,B,DB, GDB,D G,B,DB, GDB,D |
[V:3]z2G2 D2B2 z2D2 B,2G2 |
[V:4]G,4 z4 G,4 z4 |
[V:1]d'7 (3c'/b/a/ b2^f2 g2d2 |
[V:2]DGBG dBGB DGBG dBGB |
[V:3]z2D2 B,2G2 z2D2 B,2G2 |
[V:4]B,,4 z4 B,,4 z4 |
[V:1](3:2:2e8- e//d/c/B/A/G/^F2 b/a/zg/ ^f/ze/d/z|
[V:2]EGcG EAcA ^F2z6 |
[V:3]z2E2 C2c2 D2z6 |
[V:4]C,4 z4 D,2z6 |
[V:1]c/B/z^f/g/z d/e/z=B/c/z D4 A3G |
[V:2]z2B2 z2G2 z2G2 z2^F2 |
[V:3]z2D2 z2E2 z2B,2 z2C2 |
[V:4]G,,2z2 C,2z2 D,2z2 D,2z2 |
[V:1]G,2(3:2:2z4 z/G,/A,/B,2z B,/C/D2z D/B,/|
[V:2]G2z14 |
[V:3]B,2z14 |
[V:4]G,,2z14 |
[V:1]G,2(3:2:2z8 z d4|
[V:2]z7 G,/A,/ B,2zB,/C/ D2zD/B,/ |
[V:3]z7 G,/A,/ B,2zB,/C/ D2zD/B,/ |
[V:4]z7 G,,/A,,/ B,,2zB,,/C,/ D,2zD,/B,,/ |
[V:1]g4 >>d4 b7 (3a/g/f/ |
[V:2]G,B,DB, GDB,D G,B,DB, GDB,D |
[V:3]G,2G2 D2B2 z2G2 D2B2 |
[V:4]G,,4 z4 G,,4 z4 |
[V:1]=e2z2 g4 <z4 e4 |
[V:2]G,B,CB, =ECB,C G,B,CB, ECB,C |
[V:3]z2=E2 C2G2 z2E2 C2G2 |
[V:4]C,4 z4 C,4 z4 |
[V:1]f4 >a4 c'>ad'>b e'3e |
[V:2]A,CEC FECE A,CEC FECE |
[V:3]z2A2 F2c2 z2A2 F2c2 |
[V:4]F,4 z4 F,4 z4 |
[V:1]e4 d4 z4 f4 |
[V:2]B,FGF BFDF B,DFD BFDF |
[V:3]z2B,2 D2B,2 z2B,2 D2B,2 |
[V:4]B,,4 z4 B,,4 z4 |
[V:1]b4 b8 ^f4 |
[V:2]B,DFD BFDF B,DFD BDBD |
[V:3]z2B,2 F2D2 z2B,2 D2B,2 |
[V:4]D,4 z4 D,4 z4 |
[V:1]g4 g4 >f4 e2d2 |
[V:2]B,EGE BGEG B,EGE BGEG |
[V:3]z2B,2 G2E2 z2B,2 G2E2 |
[V:4]E,4 z4 E,4 z4 |
[V:1]c2cd =e2ef g2ga2 <b2B |
[V:2]C=EGE BGEG CEGE GEGE |
[V:3]z2B,2 G2=E2 z2B,2 G2E2 |
[V:4]=E,4 z4 E,4 z4 |
[V:1]A2GF F4 z8 |
[V:2]CFAF cAFA CFAF cAFC |
[V:3]z2C2 A2F2 z2C2 A2F2 |
[V:4]F,4 z4 F,4 z4 |
[V:1]e7 (3d/c/B/ A2c2 A2F2 |
[V:2]A,CEC FECE A,CEC FECE |
[V:3]z2A,2 C2A,2 z2A,2 C2A,2 |
[V:4]F,4 z4 F,4 z4 |
[V:1](3:2:2E4-E/DG FBAe dgfa b|
[V:2]A,CEC B,2z8 z2 |
[V:3]F,4 z12 |
[V:4]B,,4 z12 |
[V:1]e7 (3d/c/B/ A2c2 A2F2 |
[V:2]A,CEC FECE A,CEC FECE |
[V:3]z2A,2 C2A,2 z2A,2 C2A,2 |
[V:4]F,4 z4 F,4 z4 |
[V:1]E4 (3DEF(3GAB (3cde(3fga b2z^f |
[V:2]A,CEC B,2z8 z2 |
[V:3]F,4 z12 |
[V:4]B,,4 z12 |
[V:1]g4 e'4 >d'4 c'2b2 |
[V:2]B,EGE BGEG B,EGE BGEG |
[V:3]z2B,2 G2E2 z2B,2 G2E2 |
[V:4]E,4 z4 E,4 z4 |
[V:1]a2g'2 g'8 f'2e'2 |
[V:2]CEFE AEFE CEFE cEcE |
[V:3]z2C2 A,2C2 z2C2 A,2C2 |
[V:4]F,4 z4 A,,4 z4 |
[V:1]d'f'e'd' b'6 Dd Ee=E=e |
[V:2]DFGF dBFB D2z6 |
[V:3]z2D2 B,2D2 z4 B,4- |
[V:4]B,,4 z8 _G,4 |
[V:1]f6 e/d/c/B/ c8 |
[V:2]DFBF DFBF CEAE CEAE |
[V:3]B,4 z4 A,4 z4 |
[V:4]F,4 z4 F,4 z4 |
[V:1]B16 |
[V:2]B,DFD BFDF B,DFD BFDF |
[V:3]z2B,2 D2F2 z2B,2 D2F2 |
[V:4]B,4 z4 B,4 z4 |
[V:1](3:2:2=B8- B_a2g2 B2|
[V:2]DFGF =BGFG DFGF BGFG |
[V:3]z2D2 G,2G2 z2D2 G,2G2 |
[V:4]G,4 z4 G,4 z4 |
[V:1]c16 |
[V:2]CEGE cGEG CEGE cGEG |
[V:3]z2E2 C2G2 z2E2 C2G2 |
[V:4]C,4 z4 C,4 z4 |
[V:1]^c16 |
[V:2]=EGAG ^cAGA EGAG cGAG |
[V:3]z2=E2 A,2A2 z2E2 A,2A2 |
[V:4]A,,4 z4 A,,4 z4 |
[V:1]d12 ^f4 |
[V:2]D^FAF dAFA DECD B,CA,B, |
[V:3]z2D2 ^F2A2 d4 z4 |
[V:4]D,4 z12 |
[V:1]g4 >>d4 b7 a/g/ |
[V:2]G,B,DB, GDB,D G,B,DB, GDB,D |
[V:3]z2G2 D2B2 z2G2 D2B2 |
[V:4]G,,4 z4 G,,4 z4 |
[V:1]^f2z2 a2z2 ^CD^FA ^cdgf |
[V:2]A,CDC ^FDCD A,CDC FDCD |
[V:3]z2^F2 D2A2 z2F2 D2A2 |
[V:4]D,4 z4 D,4 z4 |
[V:1]a2>^c2 de=ef ^fgab c'2ba |
[V:2]A,CDC ^FDCD A,CDC FDCD |
[V:3]z2^F2 D2c2 z2F2 D2c2 |
[V:4]D,4 z4 D,4 z4 |
[V:1]g2z2 b2z2 G,B,DG Bdgb |
[V:2]G,B,DB, GDB,D G,B,DB, GDB,D |
[V:3]z2G2 D2B2 z2D2 B,2G2 |
[V:4]G,4 z4 G,4 z4 |
[V:1]d'7 (3c'/b/a/ b3(3a/g/^f/ g2zd |
[V:2]G,GBG dBGB DGBG dBGB |
[V:3]z2D2 B,2G2 z2D2 B,2G2 |
[V:4]B,,4 z4 B,,4 z4 |
[V:1](3e4>>d4 c(3BAG (3^Fed(3cag (3^fc'a(3gfe |
[V:2]EBdB EAcA ^F2z6 |
[V:3]z2E2 C2c2 D2z6 |
[V:4]C,4 z4 D,2z6 |
[V:1](3dcB(3^fgd (3=fde(3d=Bc D3G/A/ A3G |
[V:2]z2B2 z2G2 z2G2 z2^F2 |
[V:3]z2D2 z2E2 z2B,2 z2C2 |
[V:4]G,,2z2 C,2z2 D,2z2 D,2z2 |
[V:1]G,2(3:2:2z4 z/E/F/G2z G/_A/B2z B/G/|
[V:2]B,EGE BGEG B,EGE BGEG |
[V:3]B,2E2 G2E2 z2E2 G2E2 |
[V:4]E,4 z4 E,4 z4 |
[V:1]E2(3:2:2z4 z/B/G/D2(3:2:2z4 z/B/G/|
[V:2]B,EGE BGEG B,DGD BGDG |
[V:3]z2E2 G2E2 z2D2 G2B2 |
[V:4]E,4 z4 D,4 z4 |
[V:1]^C2(3:2:2z4 z/g/a/b2g2 g2g2 |
[V:2]B,G^FG BGFG G,2B2 B2B2 |
[V:3]z2B,2 G2B2 z2^C2 C2C2 |
[V:4]^C,4 z4 C,2^C,,2 C,,2C,,2 |
[V:1]g4 >>^f4 gfgf gabd |
[V:2]B8 z8 |
[V:3]D8 z8 |
[V:4]D,,8 z8 |
[V:1]^cb^ga ^f=ga=c Bafg =B_a=e=f |
[V:2]z12 F2z2 |
[V:3]z12 D2z2 |
[V:4]z16 |
[V:1]cgde ^cb^fg da=ef Ac'af |
[V:2]G2z2 G2z2 A2z6 |
[V:3]E2z2 =E2z2 ^F2z6 |
[V:4]z16 |
[V:1]ecA^F E2E4 <E4 D/C/B,/A,/ |
[V:2]z4 C2C4 <C4 E2 |
[V:3]z4 A,2A,4 <A,4 C2 |
[V:4]z4 ^F,2F,2 F,8 |
[V:1]G,DB,G DBGg G,EB,G EBGg |
[V:2]D8 E8 |
[V:3]B,8 G,8 |
[V:4]G,8 E,8 |
[V:1]G,^C=EG B^c=eg4 <<b4 a/g/ |
[V:2]G8 z2g2 g2g2 |
[V:3]B,8 z2=E2 E2E2 |
[V:4]^C,8 z2^C2 C2C2 |
[V:1]^fgag bac'b d'c'e'd' e'2e'2 |
[V:2]^f4 z4 >f4 f2f2 |
[V:3]D4 z4 >A4 A2A2 |
[V:4]D4 z4 >C4 C2C2 |
[V:1]e'8 z2^f'2 f'2f'2 |
[V:2]^f8 z2e2 e2e2 |
[V:3]A8 z2c2 c2c2 |
[V:4]C8 z2A,2 A,2A,2 |
[V:1]g'2z2 a'2z2 b'2z4 ^C2 |
[V:2]d2z2 d2z2 d2z6 |
[V:3]B2z2 A2z2 G2z4 ^C2 |
[V:4]B,2z2 ^F,2z2 G,2z4 ^C,2 |
[V:1]d6 c/B/A/G/ A7 G |
[V:2]B,DGD B,DGD A,D^FD A,DFD |
[V:3]D2D,2 G,2B,2 z2D,2 A,2C2 |
[V:4]D,4 z4 D,4 z4 |
[V:1]G,2(3:2:2z4 z/G,/A,/B,2z B,/C/D2z D/B,/|
[V:2]G2z14 |
[V:3]B,2z14 |
[V:4]G,,2z14 |
[V:1]G,2(3:2:2z4 z/G,/A,/B,2z B,/C/D2z D/B,/|
[V:2]z7 G,/A,/ B,2zB,/C/ D2zD/B,/ |
[V:3]z7 G,/A,/ B,2zB,/C/ D2zD/B,/ |
[V:4]z7 G,,/A,,/ B,,2zB,,/C,/ D,2zD,/B,,/ |
[V:1]G,2z2 G2z2 G,4 z4 |]
[V:2]G,2z2 G2z2 G,4 z4 |]
[V:3]G,2z2 G2z2 G,4 z4 |]
[V:4]G,,2z2 G,2z2 G,,4 z4 |]

